X: 16453
T: Hag At The Spinning Wheel, The
R: jig
M: 6/8
K: Dmajor
|:.A|(d2e) (f2d)|(g2e) (f2d)|.d2.e (fe).d|(c3 d2)z|
(d2e) (f2d)|(g2e) (f2d)|(fg).a (ge).c|d3 d2:|
|:.g|(fe).d c2 B|(ABA) A2g|(fe).d c2A|(B3g3)|
(fe).d (c2B)|(ABA) .A2g|(fg).a (ge).c|d3 d2:|

